src/assets/icons/resize.svg

<svg width="14" height="14" viewBox="0 0 14 14" fill="none" xmlns="http://www.w3.org/2000/svg">
<g clip-path="url(#clip0)">
<path d="M13.4531 0H9.41205C9.11001 0 8.86517 0.244836 8.86517 0.546875C8.86517 0.848914 9.11001 1.09375 9.41205 1.09375H12.1328L7.74905 5.47755C7.53547 5.69114 7.53547 6.03739 7.74905 6.25095C7.96261 6.4645 8.30886 6.46453 8.52244 6.25095L12.9062 1.86714V4.58793C12.9062 4.88997 13.1511 5.1348 13.4531 5.1348C13.7552 5.1348 14 4.88997 14 4.58793V0.546875C14 0.249238 13.7581 0 13.4531 0Z" fill="#696969"/>
<path d="M6.25095 7.74904C6.03736 7.53549 5.69111 7.53546 5.47755 7.74904L1.09375 12.1328V9.41206C1.09375 9.11002 0.848914 8.86519 0.546875 8.86519C0.244836 8.86519 0 9.11002 0 9.41206V13.4531C0 13.7502 0.242074 14 0.546875 14H4.58795C4.88999 14 5.13483 13.7552 5.13483 13.4531C5.13483 13.1511 4.88999 12.9062 4.58795 12.9062H1.86714L6.25095 8.52243C6.46453 8.30885 6.46453 7.9626 6.25095 7.74904Z" fill="#696969"/>
</g>
<defs>
<clipPath id="clip0">
<rect width="14" height="14" fill="white"/>
</clipPath>
</defs>
</svg>

<svg xmlns="http://www.w3.org/2000/svg" width="14" height="14" fill="none"><g fill="#696969" clip-path="url(#a)"><path d="M13.453 0h-4.04a.547.547 0 1 0 0 1.094h2.72L7.749 5.478a.547.547 0 1 0 .773.773l4.384-4.384v2.72a.547.547 0 0 0 1.094 0V.548A.548.548 0 0 0 13.453 0ZM6.25 7.749a.547.547 0 0 0-.772 0l-4.384 4.384v-2.72a.547.547 0 1 0-1.094 0v4.04c0 .297.242.547.547.547h4.041a.547.547 0 1 0 0-1.094h-2.72L6.25 8.522a.547.547 0 0 0 0-.773Z"/></g><defs><clipPath id="a"><path fill="#fff" d="M0 0h14v14H0z"/></clipPath></defs></svg>
